assets/icons/24px/stroke/rocket-24px.svg

<svg width="24" height="24" viewBox="0 0 24 24" fill="none" xmlns="http://www.w3.org/2000/svg">
<path fill-rule="evenodd" clip-rule="evenodd" d="M12.7096 4.48777C12.3458 4.03305 11.6542 4.03305 11.2904 4.48777C9.80776 6.34109 9 8.64384 9 11.0172V13.7791C9 14.3658 9.00081 14.7447 9.02476 15.0328C9.04771 15.309 9.08663 15.4111 9.11276 15.4613C9.20759 15.6437 9.35632 15.7924 9.5387 15.8873C9.58895 15.9134 9.69102 15.9523 9.9672 15.9753C10.2554 15.9992 10.6342 16 11.2209 16H12.7791C13.3658 16 13.7446 15.9992 14.0328 15.9753C14.309 15.9523 14.4111 15.9134 14.4613 15.8873C14.6437 15.7924 14.7924 15.6437 14.8872 15.4613C14.9134 15.4111 14.9523 15.309 14.9752 15.0328C14.9992 14.7447 15 14.3658 15 13.7791V11.0172C15 8.64384 14.1922 6.34109 12.7096 4.48777ZM9.72868 3.23838C10.8931 1.78284 13.1069 1.78284 14.2713 3.23838C16.0377 5.44633 17 8.18969 17 11.0172V13.8183C17 14.3547 17 14.8175 16.9684 15.1985C16.935 15.6007 16.8611 16.0004 16.6617 16.3839C16.3773 16.9311 15.9311 17.3773 15.3839 17.6617C15.0004 17.8611 14.6006 17.935 14.1985 17.9684C13.8175 18 13.3547 18 12.8183 18H11.1817C10.6453 18 10.1825 18 9.80155 17.9684C9.39936 17.935 8.99959 17.8611 8.6161 17.6617C8.06894 17.3773 7.62275 16.9311 7.33827 16.3839C7.13888 16.0004 7.06505 15.6007 7.03163 15.1985C6.99997 14.8175 6.99998 14.3547 7 13.8183L7 11.0172C7 8.18969 7.96232 5.44633 9.72868 3.23838Z" fill="white"/>
<path d="M13 8C13 8.55228 12.5523 9 12 9C11.4477 9 11 8.55228 11 8C11 7.44772 11.4477 7 12 7C12.5523 7 13 7.44772 13 8Z" fill="white"/>
<path fill-rule="evenodd" clip-rule="evenodd" d="M8.83203 10.0547L7.97789 11.3359C7.04655 12.7329 6.41405 13.6865 6.06762 14.42C5.72169 15.1524 5.80304 15.3741 5.85534 15.4719C5.90764 15.5696 6.04701 15.7603 6.84831 15.8787C7.6508 15.9974 8.79504 16 10.474 16H13.5259C15.2049 16 16.3492 15.9974 17.1516 15.8787C17.9529 15.7603 18.0923 15.5696 18.1446 15.4719C18.1969 15.3741 18.2783 15.1524 17.9323 14.42C17.5859 13.6865 16.9534 12.7329 16.0221 11.3359L15.1679 10.0547L16.832 8.94531L17.7334 10.2973C18.6057 11.6058 19.3236 12.6824 19.7408 13.5659C20.166 14.4662 20.421 15.457 19.908 16.4156C19.395 17.3741 18.4292 17.7116 17.4441 17.8572C16.4776 18.0001 15.1836 18.0001 13.6111 18H10.3889C8.81633 18.0001 7.52232 18.0001 6.55584 17.8572C5.57079 17.7116 4.60499 17.3741 4.09199 16.4156C3.57899 15.457 3.83392 14.4662 4.25917 13.5659C4.6764 12.6825 5.39421 11.6058 6.26655 10.2974C6.28225 10.2738 6.298 10.2502 6.31379 10.2265L7.16793 8.94531L8.83203 10.0547Z" fill="white"/>
<path fill-rule="evenodd" clip-rule="evenodd" d="M9 19C9.55228 19 10 19.4477 10 20V21C10 21.5523 9.55228 22 9 22C8.44772 22 8 21.5523 8 21V20C8 19.4477 8.44772 19 9 19ZM12 19C12.5523 19 13 19.4477 13 20V21.9991L12 22L11 22V20C11 19.4477 11.4477 19 12 19ZM15 19C15.5523 19 16 19.4477 16 20V21C16 21.5523 15.5523 22 15 22C14.4477 22 14 21.5523 14 21V20C14 19.4477 14.4477 19 15 19ZM12 23C11.4477 23 11 22.5523 11 22L12 22L13 21.9991C13 22.5514 12.5523 23 12 23Z" fill="white"/>
</svg>

<svg width="24" height="24" fill="none" xmlns="http://www.w3.org/2000/svg"><path fill-rule="evenodd" clip-rule="evenodd" d="M12.71 4.488a.909.909 0 0 0-1.42 0A10.452 10.452 0 0 0 9 11.018v2.761c0 .587 0 .966.025 1.254.023.276.062.378.088.428a1 1 0 0 0 .426.426c.05.026.152.065.428.088.288.024.667.025 1.254.025h1.558c.587 0 .966 0 1.254-.025.276-.023.378-.062.428-.088a1 1 0 0 0 .426-.426c.026-.05.065-.152.088-.428.024-.288.025-.667.025-1.254v-2.762c0-2.373-.808-4.676-2.29-6.53zm-2.981-1.25a2.909 2.909 0 0 1 4.542 0A12.452 12.452 0 0 1 17 11.018v2.8c0 .537 0 1-.032 1.38-.033.403-.107.802-.306 1.186-.285.547-.73.993-1.278 1.278-.384.2-.783.273-1.186.306-.38.032-.843.032-1.38.032h-1.636c-.537 0-1 0-1.38-.032-.403-.033-.802-.107-1.186-.306a3 3 0 0 1-1.278-1.278c-.2-.384-.273-.783-.306-1.186A17.912 17.912 0 0 1 7 13.819v-2.8c0-2.828.962-5.572 2.729-7.78z" fill="#fff"/><path d="M13 8a1 1 0 1 1-2 0 1 1 0 0 1 2 0z" fill="#fff"/><path fill-rule="evenodd" clip-rule="evenodd" d="M8.832 10.055l-.854 1.28c-.931 1.398-1.564 2.351-1.91 3.085-.346.732-.265.954-.213 1.052.053.098.192.288.993.407.803.118 1.947.121 3.626.121h3.052c1.679 0 2.823-.003 3.626-.121.8-.119.94-.31.993-.407.052-.098.133-.32-.213-1.052-.346-.733-.979-1.687-1.91-3.084l-.854-1.281 1.664-1.11.901 1.352c.873 1.309 1.59 2.385 2.008 3.269.425.9.68 1.891.167 2.85-.513.958-1.479 1.296-2.464 1.441-.966.143-2.26.143-3.833.143H10.39c-1.573 0-2.867 0-3.833-.143-.985-.145-1.951-.483-2.464-1.441-.513-.959-.258-1.95.167-2.85.417-.884 1.135-1.96 2.008-3.269l.047-.07.854-1.282 1.664 1.11zM9 19a1 1 0 0 1 1 1v1a1 1 0 1 1-2 0v-1a1 1 0 0 1 1-1zm3 0a1 1 0 0 1 1 1v2h-2v-2a1 1 0 0 1 1-1zm3 0a1 1 0 0 1 1 1v1a1 1 0 1 1-2 0v-1a1 1 0 0 1 1-1zm-3 4a1 1 0 0 1-1-1h2a1 1 0 0 1-1 1z" fill="#fff"/></svg>
